X: 1
T: Curlews, The
M: 6/8
L: 1/8
R: jig
K: Bmin
|: e | 
fBB FBB | fec a2 e | c/d/ed cAA | EAc  age |
fBB FBB | fec a2 f | g2 e f2 e | dB^A B2 :|
|: A | 
B/c/dc  BFF | DFF B/c/df | eBc AEE | CEA c/d/ec |
Bdc  BFF | DFF Bdf | eBc fce | dB^A B2 :|
